build/svg/cmd/sc_accepttrackedchangetonext.svg

<?xml version="1.0" encoding="UTF-8" standalone="no"?>
<svg
   xmlns:dc="http://purl.org/dc/elements/1.1/"
   xmlns:cc="http://creativecommons.org/ns#"
   xmlns:rdf="http://www.w3.org/1999/02/22-rdf-syntax-ns#"
   xmlns:svg="http://www.w3.org/2000/svg"
   xmlns="http://www.w3.org/2000/svg"
   xmlns:sodipodi="http://sodipodi.sourceforge.net/DTD/sodipodi-0.dtd"
   xmlns:inkscape="http://www.inkscape.org/namespaces/inkscape"
   height="16"
   width="16"
   version="1.1"
   id="svg63"
   sodipodi:docname="sc_accepttrackedchangetonext.svg"
   inkscape:version="0.92.5 (2060ec1f9f, 2020-04-08)"
   inkscape:export-filename="/home/jupiter007/Libreoffice yaru theme fullcolor/build/cmd/sc_accepttrackedchangetonext.png"
   inkscape:export-xdpi="95"
   inkscape:export-ydpi="95">
  <metadata
     id="metadata69">
    <rdf:RDF>
      <cc:Work
         rdf:about="">
        <dc:format>image/svg+xml</dc:format>
        <dc:type
           rdf:resource="http://purl.org/dc/dcmitype/StillImage" />
      </cc:Work>
    </rdf:RDF>
  </metadata>
  <defs
     id="defs67" />
  <sodipodi:namedview
     pagecolor="#ffffff"
     bordercolor="#666666"
     borderopacity="1"
     objecttolerance="10"
     gridtolerance="10"
     guidetolerance="10"
     inkscape:pageopacity="0"
     inkscape:pageshadow="2"
     inkscape:window-width="1920"
     inkscape:window-height="1011"
     id="namedview65"
     showgrid="true"
     inkscape:zoom="14.75"
     inkscape:cx="0.44067797"
     inkscape:cy="8"
     inkscape:window-x="0"
     inkscape:window-y="32"
     inkscape:window-maximized="1"
     inkscape:current-layer="svg63">
    <inkscape:grid
       type="xygrid"
       id="grid906" />
  </sodipodi:namedview>
  <linearGradient
     id="a"
     gradientTransform="matrix(.49219581 0 0 .45839231 4.509306 -4.793718)"
     gradientUnits="userSpaceOnUse"
     x1="23.731871"
     x2="23.731871"
     y1="5.394345"
     y2="39.735077">
    <stop
       offset="0"
       stop-color="#90dbec"
       id="stop2" />
    <stop
       offset=".26238"
       stop-color="#55c1ec"
       id="stop4" />
    <stop
       offset=".704952"
       stop-color="#3689e6"
       id="stop6" />
    <stop
       offset="1"
       stop-color="#2b63a0"
       id="stop8" />
  </linearGradient>
  <linearGradient
     id="b"
     gradientTransform="matrix(0 -.5372019 .57681717 0 -15.997188 19.865617)"
     gradientUnits="userSpaceOnUse"
     x1="40.957993"
     x2="18.680689"
     y1="46.97065"
     y2="46.97065">
    <stop
       offset="0"
       stop-color="#fff"
       id="stop11" />
    <stop
       offset=".45000002"
       stop-color="#fff"
       stop-opacity=".235294"
       id="stop13" />
    <stop
       offset=".65000004"
       stop-color="#fff"
       stop-opacity=".156863"
       id="stop15" />
    <stop
       offset="1"
       stop-color="#fff"
       stop-opacity=".392157"
       id="stop17" />
  </linearGradient>
  <linearGradient
     id="c"
     gradientTransform="matrix(.2538 0 0 .30502 19.13 -.685)"
     gradientUnits="userSpaceOnUse"
     x1="-51.786"
     x2="-51.786"
     y1="50.786"
     y2="2.906">
    <stop
       offset="0"
       stop-opacity=".34"
       id="stop20" />
    <stop
       offset="1"
       stop-opacity=".247"
       id="stop22" />
  </linearGradient>
  <linearGradient
     id="d"
     gradientTransform="matrix(.24324 0 0 .35135 2.162 -.432)"
     gradientUnits="userSpaceOnUse"
     x1="24"
     x2="24"
     y1="6.923"
     y2="41.077">
    <stop
       offset="0"
       stop-color="#fff"
       id="stop25" />
    <stop
       offset="0"
       stop-color="#fff"
       stop-opacity=".235"
       id="stop27" />
    <stop
       offset="1"
       stop-color="#fff"
       stop-opacity=".157"
       id="stop29" />
    <stop
       offset="1"
       stop-color="#fff"
       stop-opacity=".392"
       id="stop31" />
  </linearGradient>
  <linearGradient
     id="e"
     gradientTransform="matrix(.2857 0 0 .3042 1.143 .233)"
     gradientUnits="userSpaceOnUse"
     x1="25.132"
     x2="25.132"
     y1=".985"
     y2="47.013">
    <stop
       offset="0"
       stop-color="#f4f4f4"
       id="stop34" />
    <stop
       offset="1"
       stop-color="#dbdbdb"
       id="stop36" />
  </linearGradient>
  <path
     inkscape:connector-curvature="0"
     style="fill:#762572"
     d="M 7.1018295,8.7888574 V 11.788858 H 12.10183 V 8.7888574 Z"
     id="path4-2" />
  <path
     sodipodi:nodetypes="cccscsccccccccscscccccc"
     inkscape:connector-curvature="0"
     id="path4237-1"
     d="M 4.9941516,0.9999284 C 3.7359517,1.0144284 2.8152607,0.9693244 2.0625106,1.384694 1.686141,1.5923539 1.3892801,1.944081 1.2246201,2.3827408 c -0.16467,0.43867 -0.224609,0.9595875 -0.224609,1.6171875 v 1.4882811 5.5124426 c 0,0.65761 0.0599,1.178577 0.224609,1.617188 0.16468,0.438611 0.4615309,0.788524 0.8378905,0.996093 0.7527201,0.41513 1.6735411,0.371649 2.931641,0.386719 h 0.002 6.0057874 0.0039 c 1.25819,-0.0145 2.178892,0.0306 2.931641,-0.384766 0.376371,-0.20766 0.673222,-0.559386 0.837892,-0.998046 0.164538,-0.438671 0.224618,-0.959578 0.224618,-1.617188 V 5.4667254 3.9999283 c 0,-0.6576 -0.0599,-1.1785776 -0.224609,-1.6171875 C 14.610699,1.9441409 14.313848,1.594207 13.937489,1.3866472 13.184718,0.9715172 12.263887,1.0150084 11.005798,0.9999284 h -0.002 -6.0057875 z"
     style="font-style:normal;font-variant:normal;font-weight:normal;font-stretch:normal;font-size:15px;line-height:125%;font-family:Ubuntu;-inkscape-font-specification:Ubuntu;text-align:center;letter-spacing:0px;word-spacing:0px;writing-mode:lr-tb;text-anchor:middle;display:inline;opacity:0.6;fill:#000000;fill-opacity:1;stroke:none;stroke-width:0.99980211" />
  <path
     inkscape:connector-curvature="0"
     id="path1993"
     d="m 4.9830107,2.0271131 c -1.5565809,0.010796 -0.1096212,-0.011752 -1.6595721,0.038775 -0.4612289,0.042668 -1.016188,0.2064193 -1.1553399,0.7099666 -0.218994,0.6353465 -0.108414,1.3337876 -0.145796,1.9819246 -0.0078,2.2970841 -0.02297,4.5965681 0.02152,6.8859207 0.0391,0.461929 0.202551,1.012666 0.698756,1.163666 0.632456,0.225082 1.284144,0.12274 1.935974,0.154298 1.424235,0.0068 -0.1498059,0.01102 1.2760512,0.01131 1.7045307,3.5e-4 4.4086831,-0.005 6.1074871,-0.01851 0.511911,-0.01201 1.183699,0.01993 1.584745,-0.405191 0.421097,-0.539783 0.287073,-1.268021 0.322744,-1.903787 C 13.98145,8.2011624 13.99727,5.7342504 13.94768,3.2885508 13.898401,2.8865105 13.777689,2.4255988 13.372542,2.2440757 12.704373,1.9499782 11.946337,2.0760568 11.24662,2.0385029 9.4922136,2.0267004 6.7374495,2.0260185 4.9830107,2.0271131 Z"
     style="opacity:1;vector-effect:none;fill:#ffffff;fill-opacity:1;stroke:none;stroke-width:1;stroke-linecap:round;stroke-linejoin:bevel;stroke-miterlimit:4;stroke-dasharray:none;stroke-dashoffset:0;stroke-opacity:1"
     sodipodi:nodetypes="cccccccsccccccc" />
  <rect
     style="opacity:1;fill:#232629;fill-opacity:1;stroke:none;stroke-width:1.72963798;stroke-linecap:round;stroke-linejoin:round;stroke-miterlimit:4;stroke-dasharray:none;stroke-opacity:1"
     id="rect840"
     width="5.9832954"
     height="1"
     x="7.0000119"
     y="10.000072" />
  <rect
     y="10.000655"
     x="3.000011"
     height="1"
     width="3"
     id="rect844"
     style="opacity:1;fill:#c7162b;fill-opacity:1;stroke:none;stroke-width:1.2247448;stroke-linecap:round;stroke-linejoin:round;stroke-miterlimit:4;stroke-dasharray:none;stroke-opacity:1" />
  <rect
     y="7.0000691"
     x="-5.0000119"
     height="1"
     width="2"
     id="rect846"
     style="opacity:1;fill:#232629;fill-opacity:1;stroke:none;stroke-width:1;stroke-linecap:round;stroke-linejoin:round;stroke-miterlimit:4;stroke-dasharray:none;stroke-opacity:1"
     transform="scale(-1,1)" />
  <rect
     style="opacity:1;fill:#c7162b;fill-opacity:1;stroke:none;stroke-width:1.868595;stroke-linecap:round;stroke-linejoin:round;stroke-miterlimit:4;stroke-dasharray:none;stroke-opacity:1"
     id="rect848"
     width="6.9832954"
     height="1"
     x="-12.983305"
     y="7.0006509"
     transform="scale(-1,1)" />
  <rect
     style="opacity:1;fill:#232629;fill-opacity:1;stroke:none;stroke-width:1.41125751;stroke-linecap:round;stroke-linejoin:round;stroke-miterlimit:4;stroke-dasharray:none;stroke-opacity:1"
     id="rect850"
     width="3.9832954"
     height="1"
     x="9.0000105"
     y="4.0000701" />
  <rect
     y="4.0006518"
     x="3.000011"
     height="1"
     width="5"
     id="rect852"
     style="opacity:1;fill:#c7162b;fill-opacity:1;stroke:none;stroke-width:1.58113873;stroke-linecap:round;stroke-linejoin:round;stroke-miterlimit:4;stroke-dasharray:none;stroke-opacity:1" />
  <path
     sodipodi:nodetypes="cccccccc"
     style="opacity:0.6;fill:#000000;fill-opacity:1;stroke:#000000;stroke-width:2;stroke-linecap:butt;stroke-linejoin:round;stroke-miterlimit:4;stroke-dasharray:none;stroke-opacity:1"
     d="m 15.000052,4.4998798 -4,3.4999996 v -2 H 7.0000515 V 2.9998798 H 11.000052 V 0.99988 Z"
     id="path839"
     inkscape:connector-curvature="0" />
  <path
     sodipodi:nodetypes="cccccccc"
     id="path841"
     d="m 15.000052,4.4998798 -4,3.4999996 v -2 H 7.0000515 V 2.9998798 H 11.000052 V 0.99988 Z"
     style="fill:#ffffff;fill-opacity:1;stroke:none;stroke-width:1px;stroke-linecap:butt;stroke-linejoin:miter;stroke-opacity:1"
     inkscape:connector-curvature="0" />
  <circle
     style="opacity:1;vector-effect:none;fill:#46a926;fill-opacity:1;stroke:none;stroke-width:3.49999976;stroke-linecap:butt;stroke-linejoin:round;stroke-miterlimit:4;stroke-dasharray:none;stroke-dashoffset:0;stroke-opacity:1"
     id="path2644"
     cy="12.5"
     cx="12.5"
     r="3.5" />
  <path
     style="color:#000000;font-style:normal;font-variant:normal;font-weight:normal;font-stretch:normal;font-size:medium;line-height:normal;font-family:sans-serif;font-variant-ligatures:normal;font-variant-position:normal;font-variant-caps:normal;font-variant-numeric:normal;font-variant-alternates:normal;font-feature-settings:normal;text-indent:0;text-align:start;text-decoration:none;text-decoration-line:none;text-decoration-style:solid;text-decoration-color:#000000;letter-spacing:normal;word-spacing:normal;text-transform:none;writing-mode:lr-tb;direction:ltr;text-orientation:mixed;dominant-baseline:auto;baseline-shift:baseline;text-anchor:start;white-space:normal;shape-padding:0;clip-rule:nonzero;display:inline;overflow:visible;visibility:visible;opacity:1;isolation:auto;mix-blend-mode:normal;color-interpolation:sRGB;color-interpolation-filters:linearRGB;solid-color:#000000;solid-opacity:1;vector-effect:none;fill:#ffffff;fill-opacity:1;fill-rule:nonzero;stroke:none;stroke-width:1.50000024;stroke-linecap:butt;stroke-linejoin:miter;stroke-miterlimit:4;stroke-dasharray:none;stroke-dashoffset:0;stroke-opacity:1;marker:none;color-rendering:auto;image-rendering:auto;shape-rendering:auto;text-rendering:auto;enable-background:accumulate"
     id="path4135-2-8"
     d="M 14.496765,10.634258 11.792296,13.33307 10.503162,12.047331 9.6681079,12.881577 11.792328,15 15.331893,11.468496 Z"
     inkscape:connector-curvature="0"
     sodipodi:nodetypes="ccccccc" />
</svg>

<svg xmlns="http://www.w3.org/2000/svg" height="16" width="16"><path d="M7.102 8.789v3h5v-3z" fill="#762572"/><path d="M4.994 1c-1.258.014-2.179-.03-2.931.385a1.88 1.88 0 00-.838.998C1.06 2.82 1 3.343 1 4V11c0 .657.06 1.178.225 1.617.164.438.461.788.838.996.752.415 1.673.372 2.931.387h6.012c1.258-.015 2.179.03 2.931-.385a1.88 1.88 0 00.838-.998c.165-.439.225-.96.225-1.617V4c0-.658-.06-1.179-.225-1.617a1.875 1.875 0 00-.838-.996c-.752-.415-1.673-.372-2.931-.387H4.998z" style="line-height:125%;-inkscape-font-specification:Ubuntu;text-align:center" font-weight="400" font-size="15" font-family="Ubuntu" letter-spacing="0" word-spacing="0" text-anchor="middle" opacity=".6"/><path d="M4.983 2.027c-1.557.01-.11-.012-1.66.039-.46.043-1.016.206-1.155.71-.219.635-.108 1.334-.146 1.982-.007 2.297-.023 4.596.022 6.886.039.462.202 1.012.699 1.163.632.225 1.284.123 1.936.155 1.424.006-.15.01 1.276.011 1.704 0 4.408-.005 6.107-.019.512-.012 1.184.02 1.585-.405.42-.54.287-1.268.323-1.904.011-2.444.027-4.91-.022-7.356-.05-.402-.17-.863-.575-1.045-.669-.294-1.427-.168-2.126-.205-1.755-.012-4.51-.013-6.264-.012z" fill="#fff"/><path fill="#232629" d="M7 10h5.983v1H7z"/><path fill="#c7162b" d="M3 10.001h3v1H3z"/><path fill="#232629" d="M5 7H3v1h2z"/><path fill="#c7162b" d="M12.983 7.001H6v1h6.983z"/><path fill="#232629" d="M9 4h3.983v1H9z"/><path fill="#c7162b" d="M3 4.001h5v1H3z"/><path d="M15 4.5L11 8V6H7V3h4V1z" opacity=".6" stroke="#000" stroke-width="2" stroke-linejoin="round"/><path d="M15 4.5L11 8V6H7V3h4V1z" fill="#fff"/><circle cy="12.5" cx="12.5" r="3.5" fill="#46a926"/><path style="line-height:normal;font-variant-ligatures:normal;font-variant-position:normal;font-variant-caps:normal;font-variant-numeric:normal;font-variant-alternates:normal;font-feature-settings:normal;text-indent:0;text-align:start;text-decoration-line:none;text-decoration-style:solid;text-decoration-color:#000;text-transform:none;text-orientation:mixed;white-space:normal;shape-padding:0;isolation:auto;mix-blend-mode:normal;solid-color:#000;solid-opacity:1;marker:none" d="M14.497 10.634l-2.705 2.7-1.289-1.287-.835.835L11.792 15l3.54-3.532z" color="#000" font-weight="400" font-family="sans-serif" overflow="visible" fill="#fff"/></svg>
